backend/papyrus-web-graphics/src/main/resources/icons-override/full/obj16/DataStoreNode.svg

<?xml version="1.0" encoding="UTF-8" standalone="no"?>
<svg
   width="18"
   height="16"
   viewBox="0 0 4.7624999 4.2333332"
   version="1.1"
   id="svg8"
   inkscape:version="1.3 (0e150ed, 2023-07-21)"
   sodipodi:docname="DataStoreNode.svg"
   xml:space="preserve"
   xmlns:inkscape="http://www.inkscape.org/namespaces/inkscape"
   xmlns:sodipodi="http://sodipodi.sourceforge.net/DTD/sodipodi-0.dtd"
   xmlns:xlink="http://www.w3.org/1999/xlink"
   xmlns="http://www.w3.org/2000/svg"
   xmlns:svg="http://www.w3.org/2000/svg"><defs
     id="defs2"><linearGradient
       inkscape:collect="always"
       id="linearGradient872"><stop
         style="stop-color:#cae2f9;stop-opacity:1;"
         offset="0"
         id="stop868" /><stop
         style="stop-color:#fdfeff;stop-opacity:1"
         offset="1"
         id="stop870" /></linearGradient><linearGradient
       inkscape:collect="always"
       xlink:href="#linearGradient872"
       id="linearGradient865"
       x1="-47.666786"
       y1="112.97314"
       x2="-163.75984"
       y2="34.596439"
       gradientUnits="userSpaceOnUse"
       gradientTransform="matrix(0.04295617,0,0,0.02809283,7.8282662,0.99177711)" /><linearGradient
       id="linearGradient5591-4"><stop
         style="stop-color:#e0e566;stop-opacity:1;"
         offset="0"
         id="stop5593-0" /><stop
         style="stop-color:#82c448;stop-opacity:1;"
         offset="1"
         id="stop5595-5" /></linearGradient><linearGradient
       id="linearGradient5583-2"><stop
         style="stop-color:#426e4a;stop-opacity:1;"
         offset="0"
         id="stop5585-3" /><stop
         style="stop-color:#669f71;stop-opacity:1;"
         offset="1"
         id="stop5587-3" /></linearGradient><linearGradient
       inkscape:collect="always"
       xlink:href="#linearGradient872"
       id="linearGradient865-2"
       x1="-47.666786"
       y1="112.97314"
       x2="-163.75984"
       y2="34.596439"
       gradientUnits="userSpaceOnUse"
       gradientTransform="matrix(0.00998666,0,0,0.01146447,-1.5444891,1.8063531)" /></defs><sodipodi:namedview
     id="base"
     pagecolor="#ffffff"
     bordercolor="#666666"
     borderopacity="1.0"
     inkscape:pageopacity="0"
     inkscape:pageshadow="2"
     inkscape:zoom="18.459788"
     inkscape:cx="17.064118"
     inkscape:cy="15.601479"
     inkscape:document-units="mm"
     inkscape:current-layer="g882"
     inkscape:document-rotation="0"
     showgrid="false"
     inkscape:pagecheckerboard="false"
     inkscape:window-width="2560"
     inkscape:window-height="1387"
     inkscape:window-x="0"
     inkscape:window-y="25"
     inkscape:window-maximized="0"
     units="px"
     inkscape:showpageshadow="2"
     inkscape:deskcolor="#d1d1d1" /><g
     id="g1"><g
       id="g882"><g
         id="g8"
         transform="translate(0.0297669,0.04357584)"><g
           id="g839"
           transform="matrix(0.65249347,0,0,0.67601779,0.39983066,0.84360339)"><rect
             style="fill:url(#linearGradient865);fill-opacity:1;stroke:#4d81b4;stroke-width:0.238126;stroke-miterlimit:4;stroke-dasharray:none;stroke-opacity:1"
             id="rect840"
             width="5.1339917"
             height="2.2883995"
             x="0.64669204"
             y="1.8771127" /></g><g
           id="g882-8"
           transform="translate(-3.7020693,4.3145842)"
           style="stroke:#2d6296;stroke-opacity:1"><g
             id="g871"
             transform="matrix(0.92270785,0.85779331,-0.89393806,0.88539985,1.0528128,-9.1733774)"
             style="stroke-width:0.206598;stroke-dasharray:none;stroke:#2d6296;stroke-opacity:1"><g
               id="g913"
               style="stroke:#2d6296;stroke-width:0.206598;stroke-dasharray:none;stroke-opacity:1"
               transform="translate(-1.0660781,-1.6551579)"><path
                 style="fill:none;stroke:#2d6296;stroke-width:0.217608;stroke-linecap:round;stroke-linejoin:miter;stroke-miterlimit:3.9;stroke-dasharray:none;stroke-dashoffset:0.415627;stroke-opacity:1"
                 d="M 6.9766393,3.0492546 5.882353,3.0436989"
                 id="path891-1"
                 sodipodi:nodetypes="cc" /><path
                 style="fill:none;stroke:#2d6296;stroke-width:0.198948;stroke-linecap:round;stroke-linejoin:round;stroke-miterlimit:4;stroke-dasharray:none;stroke-opacity:1"
                 d="M 7.1612444,3.0480882 6.6234757,2.5771793"
                 id="path891-3-6-7-3"
                 sodipodi:nodetypes="cc" /><path
                 style="fill:none;stroke:#2d6296;stroke-width:0.201976;stroke-linecap:round;stroke-linejoin:round;stroke-miterlimit:4;stroke-dasharray:none;stroke-opacity:1"
                 d="M 7.1539564,3.053775 6.5863961,3.5201391"
                 id="path891-3-6-7-3-2"
                 sodipodi:nodetypes="cc" /></g></g></g></g><path
         style="fill:none;stroke:#2e4f6e;stroke-width:0.261763px;stroke-linecap:butt;stroke-linejoin:miter;stroke-opacity:1"
         d="M 3.0394133,2.6775369 H 3.7546527 V 3.1538163 H 3.0394133"
         id="path886-3-0-9-3"
         sodipodi:nodetypes="cccc" /><path
         style="fill:none;stroke:#2e4f6e;stroke-width:0.261763px;stroke-linecap:butt;stroke-linejoin:miter;stroke-opacity:1"
         d="M 1.998485,2.6843341 H 1.2832456 V 3.1606135 H 1.998485"
         id="path886-3-0-9"
         sodipodi:nodetypes="cccc" /></g></g></svg>

<svg xmlns="http://www.w3.org/2000/svg" xmlns:xlink="http://www.w3.org/1999/xlink" xml:space="preserve" width="16" height="16">
    <defs>
        <linearGradient id="a">
            <stop offset="0" style="stop-color:#cae2f9;stop-opacity:1"/>
            <stop offset="1" style="stop-color:#fdfeff;stop-opacity:1"/>
        </linearGradient>
        <linearGradient xlink:href="#a" id="b" x1="-47.667" x2="-163.76" y1="112.973" y2="34.596" gradientTransform="matrix(.04296 0 0 .0281 7.828 .992)" gradientUnits="userSpaceOnUse"/>
    </defs>
    <path d="M.647 1.877h5.134v2.288H.647z" style="fill:url(#b);fill-opacity:1;stroke:#4d81b4;stroke-width:.238126;stroke-miterlimit:4;stroke-dasharray:none;stroke-opacity:1" transform="matrix(2.48856 0 0 2.57828 .551 2.947)"/>
    <g style="stroke:#2d6296;stroke-opacity:1">
        <g style="stroke:#2d6296;stroke-width:.206598;stroke-dasharray:none;stroke-opacity:1">
            <path d="m6.977 3.05-1.095-.006" style="fill:none;stroke:#2d6296;stroke-width:.217608;stroke-linecap:round;stroke-linejoin:miter;stroke-miterlimit:3.9;stroke-dasharray:none;stroke-dashoffset:.415627;stroke-opacity:1" transform="matrix(3.51913 3.27156 -3.4094 3.37684 -9.186 -27.879)"/>
            <path d="m7.161 3.048-.538-.47" style="fill:none;stroke:#2d6296;stroke-width:.198948;stroke-linecap:round;stroke-linejoin:round;stroke-miterlimit:4;stroke-dasharray:none;stroke-opacity:1" transform="matrix(3.51913 3.27156 -3.4094 3.37684 -9.186 -27.879)"/>
            <path d="m7.154 3.054-.568.466" style="fill:none;stroke:#2d6296;stroke-width:.201976;stroke-linecap:round;stroke-linejoin:round;stroke-miterlimit:4;stroke-dasharray:none;stroke-opacity:1" transform="matrix(3.51913 3.27156 -3.4094 3.37684 -9.186 -27.879)"/>
        </g>
    </g>
    <path d="M3.04 2.678h.715v.476h-.716m-1.041-.47h-.715v.477h.715" style="fill:none;stroke:#2e4f6e;stroke-width:.261763px;stroke-linecap:butt;stroke-linejoin:miter;stroke-opacity:1" transform="translate(-1.087 -.437)scale(3.81392)"/>
</svg>
